apps/vesting/src/assets/favicon.svg

<svg fill="none" height="34" viewBox="0 0 33 34" width="33" xmlns="http://www.w3.org/2000/svg"><path clip-rule="evenodd" d="m16.7289.848633c4.4503 0 8.4798 1.804057 11.3963 4.720567 2.882 2.88202 4.6775 6.8506 4.7195 11.2381v.0091l.0005.0598.0006.0888-.0011.1485v.0097c-.042 4.3874-1.8375 8.3555-4.7195 11.2375-2.9165 2.9166-6.9455 4.7206-11.3963 4.7206-4.4503 0-8.47977-1.804-11.39628-4.7206-2.9165-2.9165-4.720559-6.9459-4.720559-11.3962s1.804059-8.4793 4.720559-11.39581c2.91651-2.91651 6.94598-4.720057 11.39628-4.720057zm9.2632 9.262667c.6109 0 1.2037.0806 1.768.2302-1.6621-1.61292-3.9285-2.60622-6.4278-2.60622-2.5489 0-4.8564 1.03285-6.5261 2.70302-1.6702 1.6702-2.703 3.9778-2.703 6.5267s1.0328 4.8564 2.703 6.5261c1.6702 1.6702 3.9777 2.7031 6.5261 2.7031 2.4993 0 4.7662-.9933 6.4278-2.6062-.5638.15-1.1565.2302-1.7675.2302-1.8923 0-3.6061-.7672-4.8458-2.0074-1.2403-1.2403-2.0074-2.9541-2.0074-4.8463 0-1.8923.7671-3.6061 2.0074-4.8463 1.2392-1.2393 2.9525-2.0069 4.8453-2.0069zm3.2308 3.6228c-.827-.8265-1.9693-1.3381-3.2313-1.3381-1.2621 0-2.4044.5116-3.2314 1.3381-.827.827-1.3381 1.9693-1.3381 3.2314 0 1.262.5116 2.4044 1.3381 3.2314.827.8264 1.9693 1.338 3.2314 1.338 1.262 0 2.4043-.5116 3.2313-1.338.8265-.827 1.3381-1.9694 1.3381-3.2314l-.0005-.0588c-.0152-1.2393-.5238-2.3588-1.3376-3.1726zm-7.8911-8.28305c1.4355 0 2.8091.26265 4.0767.74282-2.3735-1.91459-5.3929-3.06101-8.6796-3.06101-3.8195 0-7.27808 1.54851-9.78135 4.05127-2.50276 2.50276-4.05126 5.96127-4.05126 9.78087 0 3.82 1.548 7.2781 4.05126 9.7813 2.50327 2.5028 5.96125 4.0513 9.78135 4.0513 3.2872 0 6.3061-1.1464 8.6796-3.0615-1.2676.4801-2.6412.7428-4.0767.7428-3.1791 0-6.0581-1.2889-8.141-3.3724-2.0835-2.0834-3.37237-4.9619-3.37237-8.141 0-3.1792 1.28887-6.0582 3.37237-8.1416 2.0829-2.08394 4.9619-3.37285 8.141-3.37285z" fill="#04d484" fill-rule="evenodd"/></svg>

<svg width="33" height="34" viewBox="0 0 33 34" fill="none" xmlns="http://www.w3.org/2000/svg">
<path fill-rule="evenodd" clip-rule="evenodd" d="M16.7289 0.848633C21.1792 0.848633 25.2087 2.65269 28.1252 5.5692C31.0072 8.45122 32.8027 12.4198 32.8447 16.8073V16.8164L32.8452 16.8762L32.8458 16.965L32.8447 17.1135V17.1232C32.8027 21.5106 31.0072 25.4787 28.1252 28.3607C25.2087 31.2773 21.1797 33.0813 16.7289 33.0813C12.2786 33.0813 8.24913 31.2773 5.33262 28.3607C2.41612 25.4442 0.612061 21.4148 0.612061 16.9645C0.612061 12.5142 2.41612 8.4852 5.33262 5.56869C8.24913 2.65218 12.2786 0.848633 16.7289 0.848633ZM25.9921 10.1113C26.603 10.1113 27.1958 10.1919 27.7601 10.3415C26.098 8.72858 23.8316 7.73528 21.3323 7.73528C18.7834 7.73528 16.4759 8.76813 14.8062 10.4383C13.136 12.1085 12.1032 14.4161 12.1032 16.965C12.1032 19.5139 13.136 21.8214 14.8062 23.4911C16.4764 25.1613 18.7839 26.1942 21.3323 26.1942C23.8316 26.1942 26.0985 25.2009 27.7601 23.588C27.1963 23.738 26.6036 23.8182 25.9926 23.8182C24.1003 23.8182 22.3865 23.051 21.1468 21.8108C19.9065 20.5705 19.1394 18.8567 19.1394 16.9645C19.1394 15.0722 19.9065 13.3584 21.1468 12.1182C22.386 10.8789 24.0993 10.1113 25.9921 10.1113ZM29.2229 13.7341C28.3959 12.9076 27.2536 12.396 25.9916 12.396C24.7295 12.396 23.5872 12.9076 22.7602 13.7341C21.9332 14.5611 21.4221 15.7034 21.4221 16.9655C21.4221 18.2275 21.9337 19.3699 22.7602 20.1969C23.5872 21.0233 24.7295 21.5349 25.9916 21.5349C27.2536 21.5349 28.3959 21.0233 29.2229 20.1969C30.0494 19.3699 30.561 18.2275 30.561 16.9655L30.5605 16.9067C30.5453 15.6674 30.0367 14.5479 29.2229 13.7341ZM21.3318 5.45105C22.7673 5.45105 24.1409 5.7137 25.4085 6.19387C23.035 4.27928 20.0156 3.13286 16.7289 3.13286C12.9094 3.13286 9.45082 4.68137 6.94755 7.18413C4.44479 9.68689 2.89629 13.1454 2.89629 16.965C2.89629 20.785 4.44429 24.2431 6.94755 26.7463C9.45082 29.2491 12.9088 30.7976 16.7289 30.7976C20.0161 30.7976 23.035 29.6512 25.4085 27.7361C24.1409 28.2162 22.7673 28.4789 21.3318 28.4789C18.1527 28.4789 15.2737 27.19 13.1908 25.1065C11.1073 23.0231 9.81843 20.1446 9.81843 16.9655C9.81843 13.7863 11.1073 10.9073 13.1908 8.8239C15.2737 6.73996 18.1527 5.45105 21.3318 5.45105Z" fill="#04D484"/>
</svg>
